!!!OTL: 644. Alpenlied.
!!!COM: H. G. Naegeli
!!!ODT: 1810
!!!ARE: Europa, Mitteleuropa, Deutschland
!!!SCT: B0644
!!!TXL: @@DE
!!!YEM: Copyright 1995, estate of Helmut Schaffrath.
**kern	**text
*ICvox	*
*Ivox	*
*clefG2	*
*M3/4	*
*k[b-e-a-]	*
*E-:	*
!LO:TX:a:t=Mäßig.	!
{8g	Auf
8.g	ho-
16g	-her
=1	=1
2b-	Alp
4g	wohnt
=2	=2
4.cc	auch
8b-	der
8a-	lie-
8g	-be
=3	=3
2b-}	Gott;
{4g	er
=4	=4
4.f	färbt
8a-	den
8g	Mor-
8b-	-gen
=5	=5
2a-}	roth,
{4f	die
=6	=6
(4.g	Blüm-
8b-)	.
8.a/nL	-lein
16ccJ	.
=7	=7
8.b-L	weiß
16ddJ	.
8.ccL	und
16eenJ	.
8.dd}	blau
{16ff	und
=8	=8
8ee-L	la-
8dd	.
8ee-J	.
8cc	-bet
8an	ſie
8cc	mit
=9	=9
4.b-}	Thau:
{8b-	auf
8.b-	ho-
16b-	-her
=10	=10
4.dd	Alp,
8b-	auf
8.b-	ho-
16b-	-her
=11	=11
2ee-}	Alp
{4g	ein
=12	=12
4.cc	lie-
8b-	-ber,
8a-	lie-
8g	-ber
=13	=13
(<4b-	Va-
4a-)	.
4f	-ter
=14	=14
[2.e-	wohnt.
=15	=15
4e-]	.
8r}	.
==	==
!!!AGN: Kinder - Lied, Natur, religioes
!!!GTL: Kinderlieder
!!!ONB: ESAC (Essen Associative Code) Database: BOEHME
!!!AMT: simple triple
!!!AIN: vox
!!!EED: Helmut Schaffrath
!!!EEV: 1.0
!!!RDF**kern: < = below
!!H. G. Naegeli, um 1810.
!!@@COMMENT:"Geistl. Gedicht von F. A. Krummacher. 1806"
!!@@END:
!!!Text: F. A. Krummacher
!!!URL-scan: https://archive.org/details/BoehmeVtLieder1895/page/n501/mode/2up
!!!ENC: Anna Maria Matuszewska
!!!EEV: 2024/16/07
*-	*-
